X:1
T:[ID 1-25a]
T:[ID 1-25a]
T:Bezeichnung standardisiert: Menuett Menuet 9. In dieser Quelle auch als: Menuetto
T:Urheber unbekannt Datum in der hier transkribierten schriftlichen Quelle: 1776 - 1791
C:Urheber unbekannt
C:Datum in der hier transkribierten schriftlichen Quelle: 1776 - 1791
L:1/8
M:3/4
K:A
V:1 treble 
V:1
 Aa g2 f2 | .e2 .d2 .c2 | BcdcBA | GABG E2 | a2 a2 a2 | gfe^d e2 | fa g2 f2 | e6 :: e2 f2 _g2 | %9
 fgaf d2 | f2 g2 a2 | gabg e2 | ea g2 f2 | e2 d2 c2 | BdcBAG | A6 :| %16

